X:1
T:Title
%%score ( 1 2 ) { 3 | 4 }
L:1/8
Q:1/4=105
M:4/4
K:Eb
V:1 treble nm="Grand Piano, Soprano"
V:2 treble 
V:3 bass nm="Choir Pad, Jesus Is Victor"
V:4 bass 
V:1
 [EB]2 [EB]2 [EB]4 | [EG]>_G [E=G]>_G [E=G]4 | [EB]2 [EB]2 [EB]4 | [DA]>G [DA]>G [DA]4 | %4
w: By~Samuel~William~Beazley * *||||
 [B,DF]4 [B,B]2- [B,FB]2 | [B,EG]4 [EGB]4 | [EGc]2 [GBe]>[GBe] [F=Ad]2 [EAc]2 | [DFB]6 z2 | %8
w: ||||
 [EB]2 [EB]2 [EB]4 | [EG]>_G [E=G]>_G [E=G]4 | [EB]2 [EB]2 [EB]4 | [DA]>G [DA]>G [DA]4 | %12
w: ||||
 [DA]2 [Ad]>_d [A=d]4 | [EG]2 [Ge]>d [Ge]4 | [Fd]4 [EFc]4 | [DB]6 z2 | %16
w: ||||
[M:6/8][Q:1/4=90] B,EG B[EGc]>G | B3 G3 | A3 E3 | G6 | A[B,DG][B,DF] F[B,DG][B,DA] | B3 c3 | %22
w: ||||||
 d3 c3 | B6 | B,EG B[EGc]>G | B3 G3 | d3 G3 | e6 | [CF][C=EG][DFA] B[CGc][CG] | B3 A3 | %30
w: ||||||||
 G3 F3[K:bass] | E6- | E3 z3 |] %33
w: |||
V:2
 x8 | x8 | x8 | x8 | z4 E2 z2 | x8 | x8 | x8 | x8 | x8 | x8 | x8 | x8 | x8 | x8 | x8 |[M:6/8] x6 | %17
 z [EG][EG] z [B,E][B,E] | z [A,CE][A,CE] z [A,=B,][A,B,] | z [G,B,E][G,B,E] z [B,E][B,E] | x6 | %21
 z [B,E][B,E] z [=EB][EB] | z [FB][FB] z [E=A][EA] | D-[D-F][DG] AGF | x6 | %25
 z [EG][EG] z [B,E][B,E] | z [FG][FG] z [DF][DF] | z [Gc][Gc] z [Gc][Gc] | x6 | %29
 z [CF][CF] z [A,E][A,E] | z [B,E][B,E] z[K:bass] [A,D][A,D] | z [G,B,][G,B,] [G,B,]3- | %32
 [G,B,]3 z3 |] %33
V:3
 G,2 G,2 G,2 G,2 | B,2 B,2 B,2 B,2 | G,2 G,2 G,2 G,2 | B,2 B,2 B,2 B,2 | D,2 B,,2 C,2 D,2 | %5
 E,2 F,2 E,2 F,2 | C,4 F,4 | B,2 A,2 G,2 F,2 | G,2 G,2 G,2 G,2 | B,2 B,2 B,2 B,2 | %10
 G,2 G,2 G,2 G,2 | B,2 B,2 B,2 B,2 | B,2 B,2 B,2 B,2 | B,2 B,2 B,2 C2 | F,2 B,2 F,2 =A,2 | %15
 B,2 F,2 B,,2 z2 |[M:6/8] B,,E,G, B,D>G, | B,3 E,D,_D, | C,3 A,,3 | E,3 B,,3 | F,3 B,,3 | %21
 G,3 _G,3 | F,3 F,3 | B,,A,B, CB,A, | B,,E,G, B,C>G, | B,3 E,3 | =B,,3 B,,3 | C,[K:treble]CD E3 | %28
 A,G,[K:bass]F, =E,3 | F,3 C,2 =B,, | B,,3 B,,3 | E,B,,G,, E,,3- | E,,6 |] %33
V:4
 E,2 B,,2 E,2 B,,2 | E,2 B,,2 E,2 B,,2 | E,2 B,,2 E,2 B,,2 | F,2 B,,2 F,2 B,,2 | %4
 D,,2 B,,,2 C,,2 D,,2 | E,,2 F,,2 E,,2 F,,2 | C,,4 F,,4 | B,,2 z2 z4 | E,2 B,,2 E,2 B,,2 | %9
 E,2 B,,2 E,2 B,,2 | E,2 B,,2 E,2 B,,2 | F,2 B,,2 F,2 B,,2 | F,2 B,,2 F,2 B,,2 | E,2 B,,2 E,2 C,2 | %14
 F,,2 F,2 F,,2 F,2 | B,,2 z2 z4 |[M:6/8] z6 | z3 E,,D,,_D,, | C,,3 A,,,3 | E,,3 A,,,3 | %20
 F,,3 B,,,3 | G,,3 _G,,3 | F,,3 F,,3 | z6 | z6 | z3 E,,3 | B,,,3 =B,,,3 | .C,,3 z3 | z6 | %29
 z3 C,,2 =B,,, | B,,,3 B,,,3 | .E,,3 z3 | z6 |] %33

